X:105
T:Hole in stocking - Westaway
%%VWML:SBG-1-2-586-0
F:http://www.vwml.org/record/SBG/1/2/586
Z:Original Sibelius transcriptions by M. & S. Graebe
M:2/4
I:linebreak $
K:G
V:1 treble nm="P1" snm="Voice"
V:1
 d | c A F A | c B G d | e d c B | c B z B | c B A B | c d e f | g d e c | B G2 x | %9
T:Hole in stocking - Sth Brent
F:http://www.vwml.org/record/SBG/1/2/586
Z:Original Sibelius transcriptions by M. & S. Graebe
M:2/4
I:linebreak $
K:G
V:1 treble nm="P1" snm="Voice"
V:1
 d | B G G d | B G G d |


